X:438
T: "Die feste Burg"
N: Z1118
O: Europa, Mitteleuropa, Deutschland
R: religioeses Lied
M: 4/4
L: 1/4
K: D
d2 | d2d2 | ABc2 | dcB2 | A2
d2 | c2B2 | A2BA | GFE2 | D2
d2 | d2d2 | ABc2 | dcB2 | A2
d2 | c2B2 | A2BA | GFE2 | D2
D2 | A2B2 | A2^G2 | A2
D2 | A2F2 | B2c2 | d2
c2 | d2c2 | B4 | A2
B2 | B2A2 | B2G2 | F2
d2 | c2B2 | A2BA | GFE2 | D2

